!!!!SEGMENT: pl-kk--kk-i-123_anonim--amavit-eum-dominus.krn
!!!cenid: 16xx:1351
!!!COM: Anonim
!!!COM-rismID: pe30004985
!!!CDT:
!!!CNT:
!!!OTL: Amavit eum Dominus
!!!PDT:
!!!AGN: Sacred
!!!SMS-siglum: PL-Kk
!!!SMS-shelfmark: Kk.I.123
!!!SMS-shelfwork: W
!!!SMS-variant:
!!!SMS-altvar:
!!!NIFC-rismSourceID: 1001153685
!!!NIFC-islandoraID: pl-kk:3490
!!!URL-pdf-islandora: https://repozytorium.nifc.pl/islandora/object/pl-kk%3A3490/datastream/PDF/view
!!!URL-scan: https://polish.musicsources.pl/pl/lokalizacje/galeria/rekopisy/5756 @EN{Scan on Polish Music Herritage in Open Access Website} @PL{Skany w portalu Dziedzictwo Muzyki Polskiej w otwartym dostępie}
!!!ONB-nifc:
!!!AIN: 2 empty
!!!key:
**kern	**text	**kern	**text
*part2	*part2	*part1	*part1
*staff2	*staff2	*staff1	*staff1
*Iempty	*	*Iempty	*
*I"Baſso Ripieno.	*	*I"Baſso.	*
*I'b rip	*	*I'B	*
*>[A,B,C,B]	*	*>[A,B,C,B]	*
*>A	*	*>A	*
*clefF3	*	*clefF3	*
*k[b-]	*	*k[b-]	*
*F:	*	*F:	*
*M2/1	*	*M2/1	*
*met(c|)	*	*met(c|)	*
*2\right	*	*2\right	*
=1	=1	=1	=1
!	!	!LO:TX:t=P:global:problem=oddech/cezura na różnej wysokości	!
!LO:TX:t=P:znaki:problem= BB- pod B-	!	!LO:TX:t=P:znaki:problem= BB- pod B-	!
!LO:TX:a:t=Forte	!	!LO:TX:a:t=Lente	!
00r	.	00r	.
=2-	=2-	=2-	=2-
.	.	.	.
=3-	=3-	=3-	=3-
00r	.	00r	.
=4-	=4-	=4-	=4-
.	.	.	.
=5-	=5-	=5-	=5-
!LO:TX:t=P:problem=kreska pseudotaktowa	!	!LO:TX:t=P:problem=kreska pseudotaktowa	!
0r	.	0r	.
=6	=6	=6	=6
!	!	!LO:TX:t=P:problem=kreska pseudotaktowa	!
1F	A-	1F	A-
!	!	!	!
2F\	-ma-	2F\	-ma-
!LO:TX:t=P:problem=kreska pseudotaktowa	!	!LO:TX:t=P:problem=kreska pseudotaktowa	!
2F\	-vit	2F\	-vit
=7	=7	=7	=7
!	!	!	!
2.A|\	E-	2.A\	e-
!	!	!LO:TX:t=P:problem=kreska pseudotaktowa	!
4B-|,\	-um	4B-\	-um
2c\	Do-	2c\	Do-
!LO:TX:t=P:problem=kreska pseudotaktowa	!	!LO:TX:t=P:problem=kreska pseudotaktowa	!
2d\	-mi-	2d\	-mi-
=8	=8	=8	=8
2B-X,\	-n(us)	2B-,\	-n(us)
(1c	A-	(1c	A-
!LO:TX:t=P:problem=kreska pseudotaktowa	!	!LO:TX:t=P:problem=kreska pseudotaktowa	!
2A\)	.	2A\)	.
=9	=9	=9	=9
2B-\	-ma-	2B-\	-ma-
!LO:TX:t=P:problem=kreska pseudotaktowa	!	!LO:TX:t=P:problem=kreska pseudotaktowa	!
2c,\	-vit	2c,\	-vit
2A\	A-	2A\	A-
(4F\	-ma-	4F/	-ma-
*	*	*custos:A	*
!	!	!LO:TX:t=P:problem=kreska pseudotaktowa	!
!LO:TX:t=P:problem=kreska pseudotaktowa	!	!	!
4G\)	.	4G/	.
!LO:LB:g=original	!	!	!
=10	=10	=10	=10
4A\	.	4A\	.
4B-\	.	4B-\	.
1c	.	1c	.
2Bn\	.	2Bn\	-vit,
=11-	=11	=11-	=11
!LO:TX:t=P:problem=kreska pseudotaktowa	!	!LO:TX:t=P:problem=kreska pseudotaktowa	!
1c,	-vit	1c	.
!LO:LB:g=original	!	!	!
!LO:TX:a:t=6.	!	!LO:TX:a:t=6.	!
00r	.	00r	.
=12-	=12	=12-	=12
.	.	.	.
=13-	=13	=13-	=13
.	.	.	.
!LO:TX:t=P:problem=kreska pseudotaktowa	!	!LO:TX:t=P:problem=kreska pseudotaktowa	!
0r	.	0r	.
=14-	=14	=14-	=14
.	.	.	.
2r	.	2r	.
!	!	!LO:TX:t=P:problem=kreska pseudotaktowa	!
1F\	et	[2F\	et
=15-	=15	=15	=15
.	.	2F\]	.
!LO:TX:t=P:problem=kreska pseudotaktowa	!	!LO:TX:t=P:problem=kreska pseudotaktowa	!
2G\	or-	2G\	or-
2A\	-na-	2A\	-na-
2B-,\	-vit	2B-,\	-vit
=16	=16	=16	=16
4c\	E-	4c\	E-
4B-\	.	4B-\	.
4A\	.	4A\	.
!LO:TX:t=P:problem=kreska pseudotaktowa	!	!	!
4G\	.	4G\	.
2F,\	-um	2F,\	-um
!LO:TX:t=P:problem=kreska pseudotaktowa	!	!LO:TX:t=P:problem=kreska pseudotaktowa	!
2G\	or-	2G\	or-
=17	=17	=17	=17
(2E/	-na-	(2E/	-na-
2F/)	.	2F/)	.
!LO:TX:t=P:problem=kreska pseudotaktowa	!	!LO:TX:t=P:problem=kreska pseudotaktowa	!
1C	-vit	1C	-vit
=18	=18	=18	=18
2r	.	2r	.
1F	et	1F	et
*	*	*custos:E	*
!	!	!LO:TX:t=P:problem=kreska pseudotaktowa	!
!LO:TX:t=P:problem=kreska pseudotaktowa	!	!	!
2D/	or-	2D/	or-
!	!	!LO:LB:g=original	!
=19	=19	=19	=19
2E/	-na-	2E/	-na-
!LO:TX:t=P:problem=kreska pseudotaktowa	!	!LO:TX:t=P:problem=kreska pseudotaktowa	!
2F/	-vit	2F/	-vit
1G	E-	1G	e-
=20	=20	=20-	=20
!LO:TX:t=P:problem=kreska pseudotaktowa	!	!LO:TX:t=P:problem=kreska pseudotaktowa	!
1F	-um.	1F	-um
!	!	!LO:TX:t=P:problem=kreska pseudotaktowa	!
00r	.	00r	.
=21-	=21	=21-	=21
.	.	.	.
=22-	=22	=22-	=22
.	.	.	.
2r	.	2r	.
!LO:TX:t=P:problem=kreska pseudotaktowa	!	!LO:TX:t=P:problem=kreska pseudotaktowa	!
(<2C/	Sto-	(2C/	Sto-
=23	=23	=23	=23
2G\)	.	2G\)	.
!LO:TX:t=P:problem=kreska pseudotaktowa	!	!	!
2G\	-lam	2G,\	-lam
2.A\	glo-	2.A\	glo-
4G\	-ri-	4G\	-ri-
=24	=24	=24-	=24
!LO:TX:t=P:problem=kreska pseudotaktowa	!	!LO:TX:t=P:problem=kreska pseudotaktowa	!
1F	-ae	1F	-ae
2r	.	2r	.
*	*	*	*ij
!	!	!LO:TX:t=P:problem=kreska pseudotaktowa	!
(2C/	Sto-	2C/	Sto-
=25	=25	=25	=25
2G\)	.	2G\	.
*custos:A	*	*	*
!LO:TX:t=P:problem=kreska pseudotaktowa	!	!	!
!	!	!LO:TX:t=P:problem=kreska pseudotaktowa	!
2G\	-lam	2G\	-lam
!LO:LB:g=original	!	!	!
2.A\	glo-	2.A\	glo-
4G\	-ri-	4G\	-ri-
=26	=26	=26	=26
!LO:TX:t=P:problem=kreska pseudotaktowa	!	!LO:TX:t=P:problem=kreska pseudotaktowa	!
1F	-ae	1F	-ae
*	*	*	*Xij
2r	.	2r	.
!	!	!LO:TX:t=P:problem=kreska pseudotaktowa	!
(2C/	Sto-	2C/	Sto-
=27-	=27	=27	=27
2G/)	.	2G\	.
!LO:TX:t=P:problem=kreska pseudotaktowa	!	!LO:TX:t=P:problem=kreska pseudotaktowa	!
2G/	-lam	2G\	-lam
!	!	!LO:LB:g=original	!
2.A\	glo-	2A\	glo-
!	!	!LO:TX:t=P:problem=kreska pseudotaktowa	!
.	.	2A\	-ri-
4G\	-ri-	.	.
=28-	=28	=28	=28
1.F	-ae	1.F	-ae
!	!	!LO:TX:t=P:problem=kreska pseudotaktowa	!
2D/	in-	2D/	in-
=29-	=29	=29	=29
2A\	-du-	2A\	-du-
!LO:TX:t=P:problem=kreska pseudotaktowa	!	!	!
2A\	-it	2A\	-it
1G	e-	1G	e-
=30	=30	=30	=30
!LO:TX:t=P:problem=podwójna kreska taktowa	!	!	!
0C;	-um.	0C;	-um
=31!|:	=31!|:	=31!|:	=31!|:
*>B	*	*>B	*
!LO:TX:t=P:problem=metrum C|	!	!	!
00r	.	00r	.
=32-	=32	=32-	=32
.	.	.	.
=33-	=33	=33-	=33
00r	.	00r	.
=34-	=34	=34-	=34
.	.	.	.
=35-	=35	=35-	=35
!LO:TX:t=P:problem=kreska pseudotaktowa	!	!LO:TX:t=P:problem=kreska pseudotaktowa	!
00r	.	00r	.
=36-	=36	=36-	=36
!	!	!LO:TX:t=P:problem=wykreślona 00r	!
.	.	.	.
=37	=37	=37	=37
2D/	Et	2D/	et
!LO:TX:t=P:problem=kreska pseudotaktowa	!	!LO:TX:t=P:problem=kreska pseudotaktowa	!
2D/	ad	2D/	ad
2E/	por-	2E/	por-
!LO:TX:t=P:problem=kreska pseudotaktowa	!	!	!
!LO:TX:t=P:problem=2E poprawione na 2F	!	!LO:TX:t=P:problem=kreska pseudotaktowa	!
2F/	-tas	2F/	-tas
=38	=38	=38	=38
2G\	Pa-	2G\	Pa-
!LO:TX:t=P:problem=kreska pseudotaktowa	!	!LO:TX:t=P:problem=kreska pseudotaktowa	!
2G\	-ra-	2G\	-ra-
(>2F\	-di-	(>2F\	-di-
2E/)	.	2E/)	.
=39	=39	=39-	=39
!LO:TX:t=P:problem=kreska pseudotaktowa	!	!LO:TX:t=P:problem=kreska pseudotaktowa	!
1D	-ſi	1D	-ſi
!LO:TX:t=P:problem=kreska pseudotaktowa	!	!LO:TX:t=P:problem=kreska pseudotaktowa	!
1r	.	1r	.
!LO:LB:g=original	!	!LO:LB:g=original	!
=40	=40	=40	=40
!	!	!LO:TX:t=P:problem=wykreślona 1r	!
2r	.	2r	.
!LO:TX:t=P:problem=kreska pseudotaktowa	!	!LO:TX:t=P:problem=kreska pseudotaktowa	!
2c\	ad	2c\	ad
!LO:TX:t=P:problem=♭ above	!	!LO:TX:t=P:problem=♭ above	!
2B-X\	por-	2B-X\	por-
!LO:TX:t=P:problem=kreska pseudotaktowa	!	!LO:TX:t=P:problem=kreska pseudotaktowa	!
2G\	-tas	2G\	-tas
=41	=41	=41	=41
2A\	Pa-	2A\	pa-
!	!	!LO:TX:t=P:problem=kreska pseudotaktowa	!
2A\	-ra-	2A\	-ra-
!	!	!LO:TX:t=P:problem=kreska pseudotaktowa	!
1Bn	-di-	1Bn	-di-
=42-	=42	=42	=42
2c,\	-ſi	2c,\	-ſi
!LO:TX:t=P:problem=kreska pseudotaktowa	!	!LO:TX:t=P:problem=kreska pseudotaktowa	!
2C/	ad	2C/	ad
2C/	por-	2C/	por-
!LO:TX:t=P:problem=kreska pseudotaktowa	!	!LO:TX:t=P:problem=kreska pseudotaktowa	!
2C/	-tas	2C/	-tas
=43	=43	=43	=43
2F\	Pa-	2F\	pa-
!	!	!LO:TX:t=P:problem=kreska pseudotaktowa	!
2F\	-ra-	2F\	-ra-
1D	-di-	1D	-di-
=44-	=44	=44-	=44
!LO:TX:t=P:problem=kreska pseudotaktowa	!	!LO:TX:t=P:problem=kreska pseudotaktowa	!
1C,	-ſi	1C,	-ſi
1.F	co-	1.F	Co-
=45-	=45	=45-	=45
.	.	.	.
!LO:TX:t=P:problem=kreska pseudotaktowa	!	!LO:TX:t=P:problem=kreska pseudotaktowa	!
2F\	-ro-	2F\	-ro-
2.B-\	-na-	2.B-\	-na-
!	!	!LO:TX:t=P:problem=kreska pseudotaktowa	!
4A,\	-vit	4A\	-vit
=46-	=46	=46	=46
1G	e-	1G	e-
!LO:TX:t=P:problem=kreska pseudotaktowa	!	!LO:TX:t=P:problem=kreska pseudotaktowa	!
1F,	-um	1F	-um
!	!	!LO:LB:g=original	!
=47	=47	=47	=47
1B-	Co-	1B-	Co-
!LO:TX:t=P:problem=kreska pseudotaktowa	!	!LO:TX:t=P:problem=kreska pseudotaktowa	!
!	!	!LO:TX:t=A:?	!
1En	-ro-	1En	-ro-
=48	=48	=48	=48
1E	-na-	1E	-na-
!LO:TX:t=P:problem=kreska pseudotaktowa	!	!LO:TX:t=P:problem=kreska pseudotaktowa	!
1F,	-vit	1F,	-vit
=49	=49	=49	=49
*custos:C	*	*	*
!LO:TX:t=P:problem=kreska pseudotaktowa	!	!	!
1G	E-	1G	e-
!LO:LB:g=original	!	!	!
2C,/	-um	2C,/	-um
!	!	!LO:TX:t=P:problem=kreska pseudotaktowa	!
(2C/	Co-	(2C/	co-
=50-	=50	=50	=50
2F\)	.	2F\)	.
!	!	!LO:TX:t=P:problem=kreska pseudotaktowa	!
2F\	-ro-	2F\	-ro-
2BB-X/	-na-	2BB-X/	-na-
!LO:TX:t=P:problem=kreska pseudotaktowa	!	!LO:TX:t=P:problem=kreska pseudotaktowa	!
2BB-/	-vit	2BB-/	-[vi]t
=51	=51	=51	=51
!	!	!LO:TX:t=P:problem=kreska pseudotaktowa	!
1D	E-	1D	E-
[0C	.	[0C	.
=52	=52	=52	=52
!LO:TX:t=P:problem=kreska pseudotaktowa	!	!LO:TX:t=P:problem=kreska pseudotaktowa	!
.	.	.	.
0C]	.	0C]	.
=53-	=53	=53	=53
.	.	.	.
*	*	*custos:F	*
!	!	!LO:TX:b:t=O. ad M.D.Gm	!
!LO:TX:t=P:problem=podwójna kreska taktowa	!	!LO:TX:b:t=Vertat	!
!LO:N:vis=0	!	!LO:N:vis=0	!
1F;	-um	1F;	-um
!	!	!LO:PB:g=original	!
=54:|!	=54||	=54:|!	=54:|!
*>C	*	*>C	*
*M3/2	*	*M3/2	*
2.F/	In-	2.F/	In-
4F/	-du-	4F/	-du-
!LO:TX:t=P:problem=kreska pseudotaktowa	!	!LO:TX:t=P:problem=kreska pseudotaktowa	!
2D/	-it	2D/	-it
=55	=55	=55	=55
*	*ij	*	*ij
2.F/	In-	2.F/	In-
4F/	-du-	4F/	-du-
!LO:TX:t=P:problem=kreska pseudotaktowa	!	!LO:TX:t=P:problem=kreska pseudotaktowa	!
2E,/	-it	2E/	-it
*	*Xij	*	*Xij
=56	=56	=56	=56
1F	e-	1F	e-
*custos:G	*	*	*
!LO:TX:t=P:problem=kreska pseudotaktowa	!	!	!
!	!	!LO:TX:t=P:problem=kreska pseudotaktowa	!
2C,/	-um	2C/	-um
!LO:LB:g=original	!	!	!
=57	=57	=57	=57
2.G\	Do-	2.G\	Do-
4G\	-mi-	4G\	-mi-
!LO:TX:t=P:problem=kreska pseudotaktowa	!	!LO:TX:t=P:problem=kreska pseudotaktowa	!
2G\	-n(us)	2G\	-n(us)
=58	=58	=58	=58
2C/	lo-	2C/	lo-
!	!	!	!
2F|\	-ri-	2F\	-ri-
!LO:TX:t=P:problem=kreska pseudotaktowa	!	!	!
!	!	!LO:TX:t=P:problem=kreska pseudotaktowa	!
2G|\	-cam	2G\	-cam
=59	=59	=59	=59
(2A\	Fi-	(2A\	Fi-
2.B-X\)	.	2.B-X\)	.
!LO:TX:t=P:problem=kreska pseudotaktowa	!	!	!
!	!	!LO:TX:t=P:problem=kreska pseudotaktowa	!
4B-|\	-de-	4B-\	-de-
=60	=60	=60	=60
!LO:TX:t=P:problem=kreska pseudotaktowa	!	!LO:TX:t=P:problem=kreska pseudotaktowa	!
1.A	-i	1.A	-i
!	!	!LO:LB:g=original	!
=61	=61	=61	=61
2D/	et	2D/	et
2D/	or-	2D/	or-
!LO:TX:t=P:problem=kreska pseudotaktowa	!	!LO:TX:t=P:problem=kreska pseudotaktowa	!
2G\	-na-	2G\	-na-
=62	=62	=62	=62
2C,/	-vit	2C/	-vit
!LO:TX:t=P:problem=kreska pseudotaktowa	!	!LO:TX:t=P:problem=kreska pseudotaktowa	!
1F	E-	1F	e-
=63	=63	=63	=63
2BB-,/	-um	2BB-,/	-um
2B-\	or-	2B-\	or-
!LO:TX:t=P:problem=kreska pseudotaktowa	!	!LO:TX:t=P:problem=kreska pseudotaktowa	!
2B-\	-na-	2B-\	-na-
=64	=64	=64	=64
2F,\	-vit	2F\	-vit
*custos:C	*	*	*
!LO:TX:t=P:problem=kreska pseudotaktowa	!	!	!
!	!	!LO:TX:t=P:problem=kreska pseudotaktowa	!
1G	E-	1G	E-
!LO:LB:g=original	!	!	!
=65	=65	=65	=65
!LO:TX:a:t=Et ad portas Paradiſi Da Capo	!	!LO:TX:a:t=Et ad portas utsupra.	!
1.C;	-um	1.C	-um.
==	==	==	==
*-	*-	*-	*-
!!!system-decoration: [(s1,s2)]
!!!RDF**kern: > = above
!!!RDF**kern: < = below
!!!RDF**kern: | = vertical stroke
!!!ENC: Kamil Watkowski
!!!END: 2021-08-05
